X:1
T:[ID 7-96]
T:[ID 7-96]
T:Bezeichnung standardisiert: Anglaise Angeloise
T:Urheber unbekannt Datum in der hier transkribierten schriftlichen Quelle: 1776 - 1791
C:Urheber unbekannt
C:Datum in der hier transkribierten schriftlichen Quelle: 1776 - 1791
L:1/8
M:3/8
K:D
V:1 treble 
V:1
 A, | (DFA,) | (DFA,) | DD/E/F/G/ | A2 a/f/ | g/e/g/e/g/e/ | f/d/f/d/f/d/ | e/c/e/c/e/c/ | d3 :: %9
 g/e/ |{d} cB/A/a | fdA | g/e/g/e/g/e/ | f2 g/e/ |{d} cB/A/a | fdA | g/e/g/e/c/A/ | d2 :: %18
"^1)" d/c/ | BBc | dg d/c/ | BB/G/c/A/ | d3 :: D | D/F/A/c/A/F/ | D/G/B/d/B/G/ | Daf | g3 :| %28

